dhis-2/dhis-support/dhis-support-system/src/main/resources/SVGs/contraceptive_injection_outline.svg

<svg width="48" height="48" viewBox="0 0 48 48" fill="none" xmlns="http://www.w3.org/2000/svg">
<path fill-rule="evenodd" clip-rule="evenodd" d="M24.0037 4.37305C20.3948 4.37385 17.4418 4.90784 17.3218 5.58403H17.3108V5.63093V9.24999V9.25389H17.3138C17.3488 9.73518 20.3328 10.125 24.0057 10.125C27.6777 10.125 30.6646 9.73508 30.6986 9.25389H30.7006V9.24999V5.63093V5.58403H30.6926C30.5726 4.90704 27.6157 4.37355 24.0057 4.37305H24.0037ZM26.9917 4.82814C28.6697 4.95054 29.6927 5.17144 29.6947 5.40623C29.6947 5.78053 27.1457 6.08203 24.0037 6.08203C20.8618 6.08203 18.3168 5.78013 18.3158 5.40623C18.3188 5.18224 19.2528 4.97294 20.8138 4.84774C20.6938 4.91244 20.6318 4.99114 20.6308 5.06644C20.6308 5.44073 22.1017 5.74223 23.9157 5.74223C25.7297 5.74213 27.2007 5.44093 27.2007 5.06644C27.1997 4.98564 27.1297 4.90424 26.9917 4.82814ZM17.8258 5.90433C19.8568 6.79252 28.1067 6.83662 30.1776 5.90433L30.1856 9.05859C28.4067 9.70848 20.3568 9.87498 17.8358 9.04489L17.8258 5.90433ZM21.8538 6.91211V9.28908H22.1737V6.91211H21.8538ZM22.5157 6.91211V9.28908H22.8357V6.91211H22.5157ZM23.1777 6.91211V9.28908H23.4977V6.91211H23.1777ZM23.8397 6.91211V9.28908H24.1597V6.91211H23.8397ZM24.5017 6.91211V9.28908H24.8217V6.91211H24.5017ZM25.1637 6.91211V9.28908H25.4837V6.91211H25.1637ZM25.8257 6.91211V9.28908H26.1457V6.91211H25.8257ZM18.5428 10.094C18.5478 10.39 18.6098 10.719 19.0548 11.277L15.8108 12.6759C15.0418 12.9869 14.8048 13.5009 14.7358 13.9139V14.5489V14.7539V17.3049V26.3108V26.4078V26.4098V27.7638V27.9838V28.5367V28.8067V31.7497V31.8357V41.4626V41.4746H14.7398C14.7818 42.6666 18.9148 43.6266 24.0037 43.6266C29.0427 43.6266 33.1436 42.6836 33.2636 41.5076V14.0819C33.2126 13.6669 32.9966 13.0809 32.0976 12.7209L28.6147 11.324C28.9817 11 29.1977 10.566 29.3787 10.109C28.1587 10.326 26.2067 10.465 24.0037 10.465C21.7468 10.465 19.7578 10.32 18.5448 10.096L18.5428 10.094ZM19.2728 10.713C21.6938 11.042 25.8437 11.11 28.3957 10.76L27.7397 11.531L31.8906 13.1879C32.9236 13.5779 32.7396 14.2179 32.7536 14.4799V14.6539C31.3296 15.4689 27.8137 16.0649 24.0567 16.0659C20.1958 16.0649 16.6148 15.4999 15.2638 14.6519C15.2498 14.4029 15.1108 13.5369 15.8298 13.2339L19.8788 11.467L19.2728 10.713ZM15.2458 15.2209C16.6198 16.0829 20.1978 16.5829 23.9997 16.5839C27.7987 16.5839 31.3726 16.1069 32.7456 15.2399L32.7376 17.6409C31.3486 18.4719 27.8117 19.0159 24.0037 19.0179C20.1988 19.0159 16.6418 18.4259 15.2498 17.5959L15.2458 15.2209ZM15.2498 18.2269C18.0468 19.3049 20.9518 19.5769 24.0227 19.5409C27.9567 19.4939 31.5166 18.9689 32.7456 18.2269L32.7436 34.8847C30.8616 36.1046 26.8817 36.9256 24.0657 36.8956C20.5868 36.8586 17.3228 36.1656 15.2578 34.8847L15.2498 18.2269ZM24.0897 20.7248V20.7288C24.0277 20.7278 23.9647 20.7278 23.9017 20.7288C21.9777 20.7538 20.1378 21.5278 18.7748 22.8868C15.8818 25.7718 15.8758 30.4577 18.7618 33.3517C21.6468 36.2416 26.3307 36.2466 29.2247 33.3607C32.1176 30.4757 32.1236 25.7938 29.2377 22.8998C27.8697 21.5288 26.0217 20.7528 24.0897 20.7248ZM23.9727 22.2358V22.2378C24.0587 22.2378 24.1457 22.2418 24.2317 22.2438C25.7147 22.3018 27.1227 22.9148 28.1717 23.9648C30.2666 26.0708 30.4636 29.4097 28.6327 31.7497L20.3868 23.4768C21.4138 22.6768 22.6757 22.2398 23.9727 22.2358ZM26.8177 24.2418C25.7417 24.2358 24.1527 24.7988 24.4877 26.8398C24.4237 26.8758 24.3857 26.9238 24.3807 26.9918L25.1047 27.7028C25.1367 27.7028 25.1627 27.6888 25.1777 27.6478C28.0827 28.2617 28.2667 24.8168 27.6987 24.4608C27.5807 24.3378 27.2387 24.2488 26.8177 24.2458V24.2418ZM19.3648 24.5018L27.6127 32.7727C25.2667 34.5977 21.9297 34.3877 19.8298 32.2847C17.7348 30.1787 17.5338 26.8418 19.3648 24.5018ZM22.3257 28.1327C21.6748 28.4747 23.0157 30.1497 22.1167 30.3477C20.1008 30.3337 20.2898 31.2417 20.3048 31.9117C20.5148 30.9567 20.6808 30.7927 22.1167 30.7967C22.8527 30.6527 23.4167 30.3037 23.0307 28.8067L22.3257 28.1327ZM15.2498 35.4787C16.6338 36.3106 20.2588 37.4196 24.0697 37.4216C27.8717 37.4206 31.3476 36.3076 32.7436 35.4787L32.7416 40.6476C30.9976 39.8126 27.7107 39.1656 23.9117 39.1656C20.1098 39.1666 16.6458 39.8186 15.2498 40.6476V35.4787ZM24.2317 39.6796C27.9487 39.6906 32.6426 40.8516 32.8006 41.3316C32.8016 41.3866 32.8036 41.4536 32.7596 41.4976C31.8366 42.4166 28.3777 43.1146 24.0117 43.1146C19.6978 43.1146 15.9028 42.4126 15.2578 41.5056C15.1868 41.4056 15.1718 41.3256 15.2498 41.1856C16.6038 39.9576 20.5148 39.6636 24.2317 39.6796Z" fill="#333333"/>
</svg>

<?xml version="1.0" encoding="UTF-8" standalone="no"?>
<!-- Created with Inkscape (http://www.inkscape.org/) -->
<svg id="svg8" xmlns:rdf="http://www.w3.org/1999/02/22-rdf-syntax-ns#" xmlns="http://www.w3.org/2000/svg" xmlns:osb="http://www.openswatchbook.org/uri/2009/osb" height="48" width="48" version="1.1" xmlns:cc="http://creativecommons.org/ns#" viewBox="0 0 12.7 12.7" xmlns:dc="http://purl.org/dc/elements/1.1/">
 <title id="title4753">UIO-icon</title>
 <metadata id="metadata5">
  <rdf:RDF>
   <cc:Work rdf:about="">
    <dc:format>image/svg+xml</dc:format>
    <dc:type rdf:resource="http://purl.org/dc/dcmitype/StillImage"/>
    <dc:title>UIO-icon</dc:title>
    <dc:creator>
     <cc:Agent>
      <dc:title>Joaquín Urbano</dc:title>
     </cc:Agent>
    </dc:creator>
    <dc:rights>
     <cc:Agent>
      <dc:title>GPL</dc:title>
     </cc:Agent>
    </dc:rights>
   </cc:Work>
  </rdf:RDF>
 </metadata>
 <g id="layer1" transform="translate(0,-284.3)">
  <path id="rect3210" d="m24.004 4.373c-3.609 0.0008-6.562 0.5348-6.682 1.211h-0.011v0.0469 3.6191 0.0039h0.003c0.035 0.4813 3.019 0.8711 6.692 0.8711 3.672 0 6.659-0.3899 6.693-0.8711h0.002v-0.0039-3.6191-0.0469h-0.008c-0.12-0.677-3.077-1.2105-6.687-1.211h-0.002zm2.988 0.4551c1.678 0.1224 2.701 0.3433 2.703 0.5781 0 0.3743-2.549 0.6758-5.691 0.6758s-5.687-0.3019-5.688-0.6758c0.003-0.224 0.937-0.4333 2.498-0.5585-0.12 0.0647-0.182 0.1434-0.183 0.2187 0 0.3743 1.471 0.6758 3.285 0.6758 1.814-0.0001 3.285-0.3013 3.285-0.6758-0.001-0.0808-0.071-0.1622-0.209-0.2383zm-9.166 1.0762c2.031 0.8882 10.281 0.9323 12.352 0l0.008 3.1543c-1.779 0.6499-9.829 0.8164-12.35-0.0137l-0.01-3.1406zm4.028 1.0078v2.377h0.32v-2.377h-0.32zm0.662 0v2.377h0.32v-2.377h-0.32zm0.662 0v2.377h0.32v-2.377h-0.32zm0.662 0v2.377h0.32v-2.377h-0.32zm0.662 0v2.377h0.32v-2.377h-0.32zm0.662 0v2.377h0.32v-2.377h-0.32zm0.662 0v2.377h0.32v-2.377h-0.32zm-7.283 3.1819c0.005 0.296 0.067 0.625 0.512 1.183l-3.244 1.399c-0.769 0.311-1.006 0.825-1.075 1.238v0.635 0.205 2.551 9.006 0.097 0.002 1.354 0.22 0.553 0.27 2.943 0.086 9.627 0.012h0.004c0.042 1.192 4.175 2.152 9.264 2.152 5.039 0 9.14-0.943 9.26-2.119v-27.426c-0.051-0.415-0.267-1.001-1.166-1.361l-3.483-1.397c0.367-0.324 0.583-0.758 0.764-1.215-1.22 0.217-3.172 0.356-5.375 0.356-2.257 0-4.246-0.145-5.459-0.369l-0.002-0.002zm0.73 0.619c2.421 0.329 6.571 0.397 9.123 0.047l-0.656 0.771 4.151 1.657c1.033 0.39 0.849 1.03 0.863 1.292v0.174c-1.424 0.815-4.94 1.411-8.697 1.412-3.861-0.001-7.442-0.566-8.793-1.414-0.014-0.249-0.153-1.115 0.566-1.418l4.049-1.767-0.606-0.754zm-4.027 4.508c1.374 0.862 4.952 1.362 8.754 1.363 3.799 0 7.373-0.477 8.746-1.344l-0.008 2.401c-1.389 0.831-4.926 1.375-8.734 1.377-3.805-0.002-7.362-0.592-8.754-1.422l-0.004-2.375zm0.004 3.006c2.797 1.078 5.702 1.35 8.773 1.314 3.934-0.047 7.494-0.572 8.723-1.314l-0.002 16.658c-1.882 1.22-5.862 2.041-8.678 2.011-3.479-0.037-6.743-0.73-8.808-2.011l-0.008-16.658zm8.84 2.498v0.004c-0.062-0.001-0.125-0.001-0.188 0-1.924 0.025-3.764 0.799-5.127 2.158-2.893 2.885-2.899 7.571-0.013 10.465 2.885 2.89 7.569 2.895 10.463 0.009 2.893-2.885 2.899-7.567 0.013-10.461-1.368-1.371-3.216-2.147-5.148-2.175zm-0.117 1.511v0.002c0.086 0 0.173 0.004 0.259 0.006 1.483 0.058 2.891 0.671 3.94 1.721 2.095 2.106 2.292 5.445 0.461 7.785l-8.246-8.273c1.027-0.8 2.289-1.237 3.586-1.241zm2.845 2.006c-1.076-0.006-2.665 0.557-2.33 2.598-0.064 0.036-0.102 0.084-0.107 0.152l0.724 0.711c0.032 0 0.058-0.014 0.073-0.055 2.905 0.614 3.089-2.831 2.521-3.187-0.118-0.123-0.46-0.212-0.881-0.215v-0.004zm-7.453 0.26l8.248 8.271c-2.346 1.825-5.683 1.615-7.783-0.488-2.095-2.106-2.296-5.443-0.465-7.783zm2.961 3.631c-0.651 0.342 0.69 2.017-0.209 2.215-2.016-0.014-1.827 0.894-1.812 1.564 0.21-0.955 0.376-1.119 1.812-1.115 0.736-0.144 1.3-0.493 0.914-1.99l-0.705-0.674zm-7.076 7.346c1.384 0.832 5.009 1.941 8.82 1.943 3.802-0.001 7.278-1.114 8.674-1.943l-0.002 5.169c-1.744-0.835-5.031-1.482-8.83-1.482-3.802 0.001-7.266 0.653-8.662 1.482v-5.169zm8.982 4.201c3.717 0.011 8.411 1.172 8.569 1.652 0.001 0.055 0.003 0.122-0.041 0.166-0.923 0.919-4.382 1.617-8.748 1.617-4.314 0-8.109-0.702-8.754-1.609-0.071-0.1-0.086-0.18-0.008-0.32 1.354-1.228 5.265-1.522 8.982-1.506z" fill-rule="evenodd" transform="matrix(.26458 0 0 .26458 0 284.3)" fill="#333"/>
 </g>
</svg>
